X:321
T: Waldvgelein (63a), S. 192
N: T0210
O: Luxemburg
S: Singendes Volk, Esch-Alzette 1937 posth.]
N: Straen, fff Witry, 17.1.1933
R: Liebeslieder]
M: 6/8
L: 1/8
K: G
D | B2AGFG | BA2z2
D | cBAedc | Bz3
Bd | dcBBAG | A2ce2
e | d2ddcA | G2z2
Bd | dcBBAG | A2ce2
e | d2ddcA | G2z3

